assets/img/braze_icons/brush-03.svg

<svg fill="none" height="24" viewBox="0 0 24 24" width="24" xmlns="http://www.w3.org/2000/svg"><g fill="#801ed7"><path d="m18.4319 1h-12.86379c-.25238-.000027-.49818-.000057-.70633.01695-.2286.01868-.49833.06274-.76976.20104-.37632.19175-.68228.49771-.87403.87403-.1383.27143-.18236.54116-.20104.76976-.01701.20815-.01698.45395-.01695.70633v3.83189c0 .56005 0 .84008.109 1.05399.09587.18816.24885.34114.43701.43702.21392.10899.49394.10899 1.05399.10899h14.8c.5601 0 .8401 0 1.054-.10899.1882-.09588.3411-.24886.437-.43702.109-.21391.109-.49394.109-1.05399v-3.83206c0-.25231.0001-.49806-.0169-.70616-.0187-.2286-.0628-.49833-.2011-.76976-.1917-.37632-.4977-.68228-.874-.87403-.2714-.1383-.5412-.18236-.7698-.20104-.2081-.017007-.4539-.016977-.7063-.01695z"/><path d="m20.9558 12.2518c.0148-.1808.0222-.2713.01-.3718-.0491-.4067-.391-.7776-.7923-.8597-.0992-.0203-.2088-.0203-.428-.0203h-15.49104c-.21917 0-.32875 0-.42793.0203-.40134.0821-.74321.453-.79236.8597-.01214.1005-.00475.191.01002.3718.04593.5621.14449 1.0788.39178 1.5642.3835.7526.99542 1.3645 1.74807 1.748.48533.2473 1.00204.3459 1.56413.3918.4821.0394 1.06193.0437 1.75183.0441v3.5001c0 1.933 1.567 3.5 3.5 3.5s3.5-1.567 3.5-3.5v-3.5001c.6899-.0004 1.2697-.0047 1.7518-.0441.5621-.0459 1.0788-.1445 1.5642-.3918.7526-.3835 1.3645-.9954 1.748-1.748.2473-.4854.3459-1.0021.3918-1.5642z"/></g></svg>

<svg width="24" height="24" viewBox="0 0 24 24" fill="none" xmlns="http://www.w3.org/2000/svg">
<path d="M18.4319 1H5.56811C5.31573 0.999973 5.06993 0.999943 4.86178 1.01695C4.63318 1.03563 4.36345 1.07969 4.09202 1.21799C3.7157 1.40974 3.40974 1.7157 3.21799 2.09202C3.07969 2.36345 3.03563 2.63318 3.01695 2.86178C2.99994 3.06993 2.99997 3.31573 3 3.56811L3 7.4C3 7.96005 3 8.24008 3.109 8.45399C3.20487 8.64215 3.35785 8.79513 3.54601 8.89101C3.75993 9 4.03995 9 4.6 9H19.4C19.9601 9 20.2401 9 20.454 8.89101C20.6422 8.79513 20.7951 8.64215 20.891 8.45399C21 8.24008 21 7.96005 21 7.4L21 3.56794C21 3.31563 21.0001 3.06988 20.9831 2.86178C20.9644 2.63318 20.9203 2.36345 20.782 2.09202C20.5903 1.7157 20.2843 1.40974 19.908 1.21799C19.6366 1.07969 19.3668 1.03563 19.1382 1.01695C18.9301 0.999943 18.6843 0.999973 18.4319 1Z" fill="#801ED7"/>
<path d="M20.9558 12.2518C20.9706 12.071 20.978 11.9805 20.9658 11.88C20.9167 11.4733 20.5748 11.1024 20.1735 11.0203C20.0743 11 19.9647 11 19.7455 11H4.25446C4.03529 11 3.92571 11 3.82653 11.0203C3.42519 11.1024 3.08332 11.4733 3.03417 11.88C3.02203 11.9805 3.02942 12.071 3.04419 12.2518C3.09012 12.8139 3.18868 13.3306 3.43597 13.816C3.81947 14.5686 4.43139 15.1805 5.18404 15.564C5.66937 15.8113 6.18608 15.9099 6.74817 15.9558C7.23027 15.9952 7.8101 15.9995 8.5 15.9999V19.5C8.5 21.433 10.067 23 12 23C13.933 23 15.5 21.433 15.5 19.5V15.9999C16.1899 15.9995 16.7697 15.9952 17.2518 15.9558C17.8139 15.9099 18.3306 15.8113 18.816 15.564C19.5686 15.1805 20.1805 14.5686 20.564 13.816C20.8113 13.3306 20.9099 12.8139 20.9558 12.2518Z" fill="#801ED7"/>
</svg>
